X:1
T:Ciel d'Automne
L:1/8
Q:1/4=100
M:4/4
K:D
|:"D"!p! [Af]8 |"G" [Bg]4"D" [Aa]4 |"D" [Ba]8"Bm" |"G" [Bg]2 [Bf]2"A" [Ae]4 |
"G" [EB]4"A" [Ae]4 |"Bm" [df]2"A" [ce]2"G" [Bd]4 |"D" [Ad]8"G" |1"A"[Ad]4 [Ac]4"D" :|2"A" [Ad]4"D" [Ad]4 |
"G" [Bd]4"D" [Ad]4 |"G" [Bd]2 [ce]2"D" [df]4 |"G" [Bd]4"D" [Ad]4 |"Em" [Bd]4"A" [Ad]2 [Ac]2 |
"G"[EB]4"A" [Ae]4 |"Bm" [df]2"A" [ce]2"G" [Bd]4 |"D" [Ad]8"G" |1"A" [Ad]4 [Ac]4"D" :|2"A" [Ad]8"D" |
